X: 8760
T: Cucanandy
R: slip jig
M: 9/8
K: Dmixolydian
|:A3 A2G F2G|A2c c2B c2B|A3 A2G F2G|A2d d2c d3:|
d2e =f2e f2e|A2c c2B c2A|d2e =f2e f2e|A2d d2c d3|
d2e =f2e f2e|A2c c2B c2A|d2A A2G F2G|A2d d2c d3||

